X: 33025
T: Pride And Joy
R: polka
M: 2/4
K: Gmajor
G2cB|cdef|gfga|g4|fefg|fedB|cBce|dcBA|
G2 cB|cd ef|gf ga|g4|fe fg|fe dB|cB ce|dc BA|

